X: 13
T: Bouchard's Hornpipe
I: Bouchard's Hornpipe	R-88	D	hornpipe
C: Mike Springer
M: C|
R: hornpipe
K: D
FE| "D"DFAd "G"BcdB| "A"cdec "D"d2ef| "Em"gfga gfed| "A"edcB A2dc|
    "G"B2BA BcdB| "D"AGFG A2(3ABc| "G"dcdf "A"edc2| "D"d4 d2 :|
|:fg| "D"a2ab agfa| "Em"gfef g2ag| "Bm"f2fd gfed| "F#m"cdec A2dc|
    "G"B2BA "Em"BcdB| "D"AGFG A2(3ABc| "G"dcdf "A"edc2| "D"d4 d2 :|
%%text Roaring Jelly  R-88

